X: 10291
T: SPEED THE PLOUGH
C: By James Muirhead, 1800
R: reel
B: K\"ohler's Violin Repository, v.1, 1885 p.29 #1
F: http://www.archive.org/details/klersviolinrepos01edin
Z: 2011 John Chambers <jc:trillian.mit.edu>
M: C|
L: 1/8
K: A
((3uEFG) |\
(AB)cd (ef)ec | (ea)ec (ef)ec | (3dbd (3Bcd (3cec (3ABc | (3BFB (3dcB (3GBG (3EFG |
ABcd e(fge) | (3aba (3gag (3fgf (3efe | (3ded (3cdc (3BcB (3ABA | (3FGA (3BAG A2 :|
|: (uef/g/) |\
ae (a/g/f/g/) (aA)gA | (aA)(gA) (fA)(eA) | (3dbd (3Bcd (3cec (3ABc | (3BFB (3dcB (3GBG (3EFG |
ABcd e(fge) | (3aba (3gag (3fgf (3efe | (3ded (3cdc (3BcB (3ABA | (3FGA (3BAG A2 :|
|: ue2 |\
(aA)(c'A) (e'A)(c'A) | (e'A)(c'A) (e'A)(c'A) | (d'A)(d'A) (c'A)(c'A) | b(c'b)a (ga)bg |
(aA)(c'A) (e'A)(c'A) | (e'A)(c'A) (e'A)(c'A) | (d'A)(d'A) (c'A)(c'A) | b(ef)g a2 "_D.C.":|

%%sep 2 1 500

